X:1
T:ROND DE MOLAC
C:SKOL AL LOUARN
Q:1/4=91
M:4/4
L:1/8
K:G
GG B3/2A/ G/F/G/A/ B2 | d/c/d/e/ dc/B/ AG/A/ BG |
GG B3/2A/ G/F/G/A/ B2 | d/c/d/e/ dc/B/ Ad G2 ||
|: d/c/d/e/ dc/B/ AG/A/ BG | d/c/d/e/ dc/B/ Ad G2 :|
